X:1
T:Collector Man Blues
M:4/4
L:1/8
K:E
 z2 B2G-E E2| z BB BB A=G ^G| E8| z8| z2 =G E- E4| z =GG EG E(2B3.99999962500005/5.99999925000009B3.99999962500005/5.99999925000009A3.99999962500005/5.99999925000009 G3.99999962500005/5.99999925000009|\
 E8| z4 z2 GG| AA AG A B- B2| ee e2B-A =G2| E8| z8|||
